X:1758
T:Ragundapolska
R:Polska
O:Ragunda, Jämtland
Z:Håkan Lidén, 2010-02-27
M:3/4
L:1/8
K:Dm
|: d>e f2 f2 | fg/f/ e2 e2 | d>^c d>f a>f | (3ded (3^cec A2 |
d>e f2 f2 | fg/f/ e2 e2 | (3fgf d>^c d>f | e>^c d4 :|
|: a2 (3aba g>e | f2 (3faf e>^c | A>^c de f>a | (3gag (3fed e>A |
a2 (3aba g>e | f2 (3faf e>d | a>g (3ege (3dfd | (3^cec d4 :|]
(:musicend:)
[[!Lite information]]

Jfr en sydjämtsk variant ([[Musik.1225|+]]) (Första reprisen en oktav lägre)
(:music:)
